!!!COM:	Bach, Johann Sebastian
!!!OMV:	Liebester Gott, wann werd ich sterben
!!!OTL:	Liebester Gott, wann werd ich sterben
**kern	**fb	**kern	**kern	**kern	**kern
*part5	*part5	*part4	*part3	*part2	*part1
*staff5	*	*staff4	*staff3	*staff2	*staff1
*I"Continuo	*	*I"Voice	*I"Voice	*I"Voice	*I"Voice
*I'Cont.	*	*I'V	*I'V	*I'V	*I'V
*clefF4	*	*clefF4	*clefGv2	*clefG2	*clefG2
*Trd0c0	*	*	*	*	*
*k[f#c#g#d#]	*	*k[f#c#g#d#]	*k[f#c#g#d#]	*k[f#c#g#d#]	*k[f#c#g#d#]
*M4/4	*	*M4/4	*M4/4	*M4/4	*M4/4
=	=	=	=	=	=
4EE	.	2r	2r	2r	4r
4r	.	.	.	.	8bL
.	.	.	.	.	8bJ
4r	.	4r	4r	4r	4ee
8EL	.	8EL	8eL	8g#L	4b
8EJ	.	8EJ	8eJ	8g#J	.
=3	=3	=3	=3	=3	=3
4A	.	4A	4e	4a	4cc#
4E	4	4E	4e	8aL	4b
.	3	.	.	8g#J	.
4F#	9	4F#	4c#	8g#	4.a
.	8	.	.	16f#LL	.
.	.	.	.	16eJJ	.
4D#	6 5	4D#	4B	8f#L	.
.	.	.	.	8f#J	16bLL
.	.	.	.	.	16aJJ
=4	=4	=4	=4	=4	=4
4E	.	4E	4B	4e	4g#
8BBL	.	4BB	4B	4d#	4f#
8C#J	.	.	.	.	.
2D#	6	2r	2r	2r	4r
.	.	.	.	.	8bL
.	5	.	.	.	8aJ
=5	=5	=5	=5	=5	=5
8EL	.	4r	4r	4r	4g#
8EEJ	.	.	.	.	.
[4E	6 8	4.E	8eL	4g#	8cc#L
.	5 7	.	8d#J	.	8bJ
8EL]	6 #4| 2	.	4c#	4f#	8a#XL
8D#	.	8D#L	.	.	8f#J
8C#	7 4 2	8C#	4d#	4f#	[4b
8BBJ	.	8BBJ	.	.	.
=6	=6	=6	=6	=6	=6
4F#	5 4	8F#L	4c#	4f#	4b]
.	.	8EJ	.	.	.
4FF#	#	4F#	4c#	4f#	4a#X
2BB	.	2BB	2d#	2f#	2b
=7:|!	=7:|!	=7:|!	=7:|!	=7:|!	=7:|!
!!linebreak:original
4D#	.	2r	2r	4r	4r
4BB	5 3	.	.	8d#L	8f#L
.	6 4	.	.	8eJ	8g#J
4FF#	.	4r	4r	4f#	4an
8C#L	5 3	8C#L	8eL	8eL	4g#
8D#J	.	8D#J	8d#J	8f#J	.
=8	=8	=8	=8	=8	=8
8EL	6	8EL	8c#L	8g#L	4.cc#
8D#	._	8D#	8a	8f#J	.
8E	.	8E	8g#	8g#L	.
8F#J	6	8F#J	8f#J	8aJ	8dd#
4GG#	#	4GG#	2d#	2g#	2b#X
8G#L	._	8G#L	.	.	.
8F#J	.	8F#J	.	.	.
=9	=9	=9	=9	=9	=9
2.E	6	2.E	4r	4r	4r
.	.	.	8eL	8g#L	8cc#L
.	5	.	8d#J	8g#J	8bJ
.	6 #4| 2	.	4c#	4f#	4a#X
8D#L	6	8D#L	4d#	4f#	4b
8EJ	.	8EJ	.	.	.
=10	=10	=10	=10	=10	=10
4F#	5 4	4F#	8c#L	4f#	4b
.	.	.	8BJ	.	.
4FF#	#	4FF#	4c#	4f#	4a#X
4.BB	.	4BB	4d#	4f#	4b
.	.	4r	4r	4r	8f#L
8C#	.	.	.	.	8f#J
=11	=11	=11	=11	=11	=11
4D#	6_	4r	4r	4r	4.b
8BBL	..	8BBL	8d#L	2f#	.
8BBJ	7	8BBJ	8d#J	.	8an
8EL	.	8EL	4B	.	4g#
8D#	.	8D#	.	.	.
8C#	5 3	8C#	4c#	4e	4cc#
8BBJ	.	8BBJ	.	.	.
=12	=12	=12	=12	=12	=12
!!pagebreak:original
8AAL	6 4 #2|	8AAL	4d#	8f#L	4b#X
8GG#J	.	8GG#J	.	8g#	.
4FF##X	7 5	4FF##X	4e	8a#X	2cc#
.	.	.	.	8a#J	.
2GG#	5 4	2GG#	2d#	2g#	.
.	#	.	.	.	4b#
=13	=13	=13	=13	=13	=13
2C#	.	2C#	4e	4g#	2cc#
.	.	.	8eL	8g#L	.
.	.	.	8B#XJ	8d#J	.
4r	.	4r	4.c#	[2e	4r
8c#L	.	8c#L	.	.	8eeL
8G#J	nr5 6	8G#J	8dn	.	8bnJ
=14	=14	=14	=14	=14	=14
8AL	.	8AL	2c#	4e]	4cc#
8BJ	.	8BJ	.	.	.
4c#	5	4c#	.	4e	8g#L
.	6	.	.	.	8aJ
4G#	5	4G#	[2B	8d#L	4.b
.	6	.	.	8eJ	.
4D#	6	4D#	.	[4f#	.
.	5	.	.	.	8a
=15	=15	=15	=15	=15	=15
4E	9	4E	4B]	8f#L]	4g#
.	8	.	.	8eJ	.
2AA	6 4	2AA	4cn	8d#L	8f#L
.	7 5	.	.	8eJ	8eJ
.	6 4 2	.	4F#	4B	4d#
4AA#X	nr7 5	4AA#X	4Gn	4c#	[4e
=16	=16	=16	=16	=16	=16
2BB	5 4	2BB	8F#L	2B	4e]
.	.	.	8EJ	.	.
.	3	.	4F#	.	4d#
2EE;	.	2E;	2G#;	2B;	2e;
=||	=||	=||	=||	=||	=||
*-	*-	*-	*-	*-	*-
!!!system-decoration: s1,s2,s3,s4,s5
